packages/kaspersky-hexa-ui-icons/src/iconsSVGs/24/LinkedInColor.svg

<svg width="24" height="24" viewBox="0 0 24 24" fill="none" xmlns="http://www.w3.org/2000/svg">
<path d="M19.3718 3H4.62825C3.729 3 3 3.729 3 4.62825V19.3717C3 20.271 3.729 21 4.62825 21H19.3717C20.271 21 21 20.271 21 19.3717V4.62825C21 3.729 20.271 3 19.3718 3ZM8.56996 18.5424C8.56996 18.8041 8.35783 19.0162 8.09612 19.0162H6.07908C5.81738 19.0162 5.60524 18.8041 5.60524 18.5424V10.0871C5.60524 9.82535 5.81738 9.61321 6.07908 9.61321H8.09612C8.35783 9.61321 8.56996 9.82535 8.56996 10.0871V18.5424ZM7.0876 8.81617C6.02932 8.81617 5.1714 7.95825 5.1714 6.89997C5.1714 5.84169 6.02932 4.98377 7.0876 4.98377C8.14588 4.98377 9.0038 5.84169 9.0038 6.89997C9.0038 7.95825 8.14593 8.81617 7.0876 8.81617ZM19.1109 18.5806C19.1109 18.8212 18.9159 19.0162 18.6753 19.0162H16.5108C16.2702 19.0162 16.0752 18.8212 16.0752 18.5806V14.6145C16.0752 14.0229 16.2487 12.0219 14.529 12.0219C13.1951 12.0219 12.9245 13.3915 12.8702 14.0062V18.5806C12.8702 18.8212 12.6751 19.0162 12.4345 19.0162H10.3411C10.1005 19.0162 9.90545 18.8212 9.90545 18.5806V10.0489C9.90545 9.80829 10.1005 9.61321 10.3411 9.61321H12.4345C12.6751 9.61321 12.8702 9.80829 12.8702 10.0489V10.7866C13.3648 10.0443 14.0999 9.47133 15.665 9.47133C19.1308 9.47133 19.1109 12.7093 19.1109 14.4883V18.5806Z" fill="#0077B7"/>
</svg>

<svg xmlns="http://www.w3.org/2000/svg" width="24" height="24" fill="none" viewBox="0 0 24 24"><path fill="#0077b7" d="M19.3718 3H4.6283C3.729 3 3 3.729 3 4.6283v14.7434C3 20.271 3.729 21 4.6283 21h14.7434C20.271 21 21 20.271 21 19.3717V4.6283C21 3.729 20.271 3 19.3718 3M8.57 18.5424a.474.474 0 0 1-.4739.4738h-2.017a.474.474 0 0 1-.4739-.4738v-8.4553a.474.474 0 0 1 .4739-.4739h2.017a.474.474 0 0 1 .4739.4739zM7.0876 8.8162c-1.0583 0-1.9162-.858-1.9162-1.9162 0-1.0583.858-1.9162 1.9162-1.9162 1.0583 0 1.9162.8579 1.9162 1.9162s-.8579 1.9162-1.9162 1.9162m12.0233 9.7644a.4356.4356 0 0 1-.4356.4356h-2.1645a.4356.4356 0 0 1-.4356-.4356v-3.9661c0-.5916.1735-2.5926-1.5462-2.5926-1.3339 0-1.6045 1.3696-1.6588 1.9843v4.5744a.4357.4357 0 0 1-.4357.4356h-2.0934a.4356.4356 0 0 1-.4357-.4356v-8.5317a.4357.4357 0 0 1 .4357-.4357h2.0934c.2406 0 .4357.195.4357.4357v.7377c.4946-.7423 1.2297-1.3153 2.7948-1.3153 3.4658 0 3.4459 3.238 3.4459 5.017z"/></svg>
